dist/images/logo.svg

<svg width="147" height="40" viewBox="0 0 147 40" fill="none" xmlns="http://www.w3.org/2000/svg">
<path d="M36.75 0H6.68182C2.99155 0 0 2.98477 0 6.66667V33.3333C0 37.0152 2.99155 40 6.68182 40H36.75C40.4403 40 43.4318 37.0152 43.4318 33.3333V6.66667C43.4318 2.98477 40.4403 0 36.75 0Z" fill="#6A994E"/>
<path d="M8.48254 28.3333V12H14.6799C15.5842 12 16.4105 12.1322 17.1589 12.3967C17.9228 12.6611 18.5699 13.0344 19.1 13.5167C19.63 13.9833 20.0433 14.5589 20.3394 15.2433C20.6356 15.9122 20.7838 16.6511 20.7838 17.46V17.6467C20.7838 18.4712 20.6356 19.2255 20.3394 19.91C20.0433 20.5945 19.6223 21.1778 19.0766 21.66C18.5465 22.1422 17.9072 22.5155 17.1589 22.78C16.4261 23.0445 15.5998 23.1767 14.6799 23.1767H12.1308V28.3333H8.48254ZM12.0139 20.3067H14.3525C14.7891 20.3067 15.1788 20.2445 15.5218 20.12C15.8804 19.98 16.1767 19.8012 16.4105 19.5833C16.6444 19.35 16.8236 19.07 16.9484 18.7433C17.0732 18.4167 17.1355 18.0745 17.1355 17.7167V17.5533C17.1355 17.18 17.0732 16.8455 16.9484 16.55C16.8393 16.2545 16.6678 16.0056 16.4339 15.8033C16.2 15.5856 15.9194 15.4222 15.592 15.3133C15.2646 15.1889 14.8826 15.1267 14.4461 15.1267H12.0139V20.3067ZM23.1219 28.3333V12H29.3193C30.2235 12 31.0499 12.1322 31.7982 12.3967C32.5621 12.6611 33.2091 13.0344 33.7393 13.5167C34.2694 13.9833 34.6825 14.5589 34.9788 15.2433C35.275 15.9122 35.4231 16.6511 35.4231 17.46V17.6467C35.4231 18.4712 35.275 19.2255 34.9788 19.91C34.6825 20.5945 34.2615 21.1778 33.7159 21.66C33.1857 22.1422 32.5466 22.5155 31.7982 22.78C31.0654 23.0445 30.239 23.1767 29.3193 23.1767H26.7702V28.3333H23.1219ZM26.6532 20.3067H28.9919C29.4284 20.3067 29.8181 20.2445 30.1612 20.12C30.5197 19.98 30.816 19.8012 31.0499 19.5833C31.2837 19.35 31.463 19.07 31.5878 18.7433C31.7124 18.4167 31.7749 18.0745 31.7749 17.7167V17.5533C31.7749 17.18 31.7124 16.8455 31.5878 16.55C31.4785 16.2545 31.3071 16.0056 31.0733 15.8033C30.8394 15.5856 30.5588 15.4222 30.2314 15.3133C29.904 15.1889 29.5219 15.1267 29.0854 15.1267H26.6532V20.3067Z" fill="white"/>
<path d="M48.9243 27.5001V11.1667H52.5491L57.0159 21.9934H57.203L61.6464 11.1667H65.2713V27.5001H62.8391V14.2234H62.6988L58.1151 25.2134H56.0805L51.4968 14.2234H51.3564V27.5001H48.9243ZM72.6805 27.7101C72.0567 27.7101 71.4799 27.6246 70.9499 27.4534C70.4354 27.2667 69.991 27.0179 69.6168 26.7067C69.2427 26.3801 68.9463 25.9989 68.7282 25.5634C68.5254 25.1122 68.4241 24.6146 68.4241 24.0701V23.9534C68.4241 22.6467 69.0399 21.6667 70.2717 21.0134C71.5033 20.3446 73.3508 20.0101 75.8142 20.0101H76.8666V19.3334C76.8666 18.6646 76.6249 18.1434 76.1416 17.7701C75.6582 17.3967 74.98 17.2101 74.107 17.2101H74.0603C73.4054 17.2101 72.7115 17.3189 71.9789 17.5367C71.2616 17.7546 70.6146 18.0656 70.0378 18.4701L69.0322 16.7201C69.7961 16.2223 70.6068 15.8334 71.4644 15.5534C72.3373 15.2734 73.2417 15.1334 74.1772 15.1334H74.2707C74.9411 15.1334 75.5725 15.2267 76.165 15.4134C76.7574 15.5845 77.2642 15.8412 77.6851 16.1834C78.1216 16.5256 78.4646 16.9612 78.7141 17.4901C78.9791 18.0034 79.1117 18.6022 79.1117 19.2867V25.2601C79.1117 25.6334 79.1506 26.0222 79.2286 26.4267C79.3065 26.8156 79.4079 27.1734 79.5327 27.5001H77.2408C77.1628 27.3289 77.1005 27.1112 77.0537 26.8467C77.0069 26.5667 76.9678 26.2946 76.9368 26.0301C76.3443 26.5746 75.6894 26.9946 74.9723 27.2901C74.255 27.5701 73.4911 27.7101 72.6805 27.7101ZM72.9845 25.6801C73.7639 25.6801 74.4889 25.5246 75.1594 25.2134C75.8298 24.9022 76.3989 24.4979 76.8666 24.0001V21.7601H76.0949C74.2395 21.7601 72.8752 21.9389 72.0023 22.2967C71.1446 22.6389 70.716 23.1756 70.716 23.9067V23.9767C70.716 24.2256 70.7705 24.4589 70.8797 24.6767C70.9888 24.8789 71.1446 25.0579 71.3474 25.2134C71.5501 25.3534 71.7839 25.4701 72.049 25.5634C72.3297 25.6412 72.6414 25.6801 72.9845 25.6801ZM82.9249 27.5001V15.3667H84.749C84.8425 15.6001 84.9205 15.8879 84.9829 16.2301C85.0453 16.5723 85.0921 16.8756 85.1232 17.1401C85.6689 16.5023 86.3237 16.0123 87.0876 15.6701C87.8517 15.3279 88.6624 15.1567 89.5198 15.1567H89.59C91.0712 15.1567 92.1782 15.5534 92.9108 16.3467C93.6437 17.1401 94.01 18.2756 94.01 19.7534V27.5001H91.6947V20.1967C91.6947 19.2634 91.4843 18.5479 91.0633 18.0501C90.6424 17.5367 89.9486 17.2801 88.9819 17.2801H88.865C88.335 17.2801 87.8438 17.3656 87.3917 17.5367C86.9396 17.6922 86.5576 17.9256 86.2457 18.2367C85.934 18.5479 85.6844 18.9212 85.4973 19.3567C85.326 19.7767 85.2401 20.2589 85.2401 20.8034V27.5001H82.9249ZM101 27.7101C100.376 27.7101 99.7993 27.6246 99.2692 27.4534C98.7547 27.2667 98.3104 27.0179 97.9362 26.7067C97.562 26.3801 97.2659 25.9989 97.0475 25.5634C96.8449 25.1122 96.7435 24.6146 96.7435 24.0701V23.9534C96.7435 22.6467 97.3594 21.6667 98.591 21.0134C99.8227 20.3446 101.67 20.0101 104.134 20.0101H105.186V19.3334C105.186 18.6646 104.944 18.1434 104.461 17.7701C103.978 17.3967 103.3 17.2101 102.426 17.2101H102.38C101.725 17.2101 101.031 17.3189 100.298 17.5367C99.5811 17.7546 98.934 18.0656 98.3572 18.4701L97.3516 16.7201C98.1155 16.2223 98.9263 15.8334 99.7837 15.5534C100.657 15.2734 101.561 15.1334 102.497 15.1334H102.59C103.26 15.1334 103.892 15.2267 104.484 15.4134C105.077 15.5845 105.584 15.8412 106.005 16.1834C106.441 16.5256 106.784 16.9612 107.034 17.4901C107.299 18.0034 107.431 18.6022 107.431 19.2867V25.2601C107.431 25.6334 107.47 26.0222 107.548 26.4267C107.626 26.8156 107.727 27.1734 107.852 27.5001H105.56C105.482 27.3289 105.42 27.1112 105.373 26.8467C105.326 26.5667 105.287 26.2946 105.256 26.0301C104.664 26.5746 104.009 26.9946 103.292 27.2901C102.575 27.5701 101.811 27.7101 101 27.7101ZM101.304 25.6801C102.083 25.6801 102.808 25.5246 103.479 25.2134C104.149 24.9022 104.718 24.4979 105.186 24.0001V21.7601H104.414C102.559 21.7601 101.195 21.9389 100.322 22.2967C99.4642 22.6389 99.0354 23.1756 99.0354 23.9067V23.9767C99.0354 24.2256 99.09 24.4589 99.1991 24.6767C99.3082 24.8789 99.4642 25.0579 99.6668 25.2134C99.8694 25.3534 100.103 25.4701 100.368 25.5634C100.649 25.6412 100.961 25.6801 101.304 25.6801ZM110.402 19.6834V19.4734C110.402 18.8512 110.535 18.2756 110.8 17.7467C111.065 17.2179 111.431 16.7667 111.899 16.3934C112.367 16.0045 112.928 15.709 113.583 15.5067C114.238 15.289 114.939 15.1801 115.688 15.1801H115.922C116.686 15.1801 117.387 15.289 118.026 15.5067C118.681 15.709 119.243 16.0045 119.71 16.3934C120.178 16.7667 120.544 17.2179 120.809 17.7467C121.074 18.2756 121.207 18.8589 121.207 19.4967V19.6834C121.207 20.3056 121.074 20.8812 120.809 21.4101C120.544 21.9389 120.178 22.3901 119.71 22.7634C119.243 23.1367 118.681 23.4322 118.026 23.6501C117.387 23.8522 116.686 23.9534 115.922 23.9534H115.805C115.633 23.9534 115.462 23.9456 115.29 23.9301C115.119 23.9146 114.955 23.8912 114.799 23.8601V25.2834C115.002 25.2522 115.204 25.2367 115.407 25.2367C115.61 25.2367 115.828 25.2367 116.062 25.2367H116.249C117.044 25.2367 117.777 25.3146 118.447 25.4701C119.118 25.6256 119.695 25.8589 120.178 26.1701C120.677 26.4656 121.067 26.8234 121.347 27.2434C121.628 27.6634 121.768 28.1379 121.768 28.6667V28.9001C121.768 29.4134 121.628 29.8801 121.347 30.3001C121.067 30.7356 120.677 31.1012 120.178 31.3967C119.679 31.7079 119.087 31.9412 118.401 32.0967C117.73 32.2522 116.997 32.3301 116.202 32.3301H115.828C115.033 32.3301 114.292 32.2522 113.606 32.0967C112.92 31.9412 112.328 31.7079 111.829 31.3967C111.346 31.1012 110.964 30.7356 110.683 30.3001C110.402 29.8801 110.262 29.4134 110.262 28.9001V28.6434C110.262 27.9589 110.488 27.3601 110.94 26.8467C111.408 26.3334 112.016 25.9289 112.765 25.6334V23.3001C112.032 22.9422 111.455 22.4522 111.034 21.8301C110.613 21.1922 110.402 20.4767 110.402 19.6834ZM112.741 19.5201V19.7301C112.741 20.0879 112.819 20.4146 112.975 20.7101C113.146 20.9901 113.365 21.2389 113.63 21.4567C113.895 21.6746 114.207 21.8379 114.565 21.9467C114.924 22.0556 115.314 22.1101 115.735 22.1101H115.922C116.343 22.1101 116.732 22.0556 117.091 21.9467C117.449 21.8222 117.761 21.6512 118.026 21.4334C118.307 21.2156 118.525 20.9667 118.681 20.6867C118.837 20.3912 118.915 20.0722 118.915 19.7301V19.5201C118.915 19.1622 118.837 18.8434 118.681 18.5634C118.525 18.2679 118.315 18.0112 118.05 17.7934C117.785 17.5756 117.465 17.4122 117.091 17.3034C116.717 17.1789 116.319 17.1167 115.898 17.1167H115.758C115.337 17.1167 114.939 17.1789 114.565 17.3034C114.207 17.4122 113.895 17.5756 113.63 17.7934C113.365 18.0112 113.146 18.2601 112.975 18.5401C112.819 18.8201 112.741 19.1467 112.741 19.5201ZM112.601 28.6434V28.8067C112.601 29.3201 112.897 29.7246 113.489 30.0201C114.098 30.3156 114.885 30.4634 115.852 30.4634H116.179C117.145 30.4634 117.933 30.3079 118.541 29.9967C119.149 29.7012 119.453 29.3046 119.453 28.8067V28.6434C119.453 28.1301 119.149 27.7256 118.541 27.4301C117.933 27.1346 117.145 26.9867 116.179 26.9867H115.852C114.885 26.9867 114.098 27.1346 113.489 27.4301C112.897 27.7256 112.601 28.1301 112.601 28.6434ZM121.792 14.0134L120.155 17.2801L118.611 16.1134C118.736 15.709 118.876 15.3356 119.032 14.9934C119.203 14.6356 119.398 14.309 119.617 14.0134H121.792ZM129.801 27.6867C128.897 27.6867 128.07 27.5389 127.322 27.2434C126.573 26.9479 125.927 26.5356 125.381 26.0067C124.851 25.4622 124.43 24.8246 124.118 24.0934C123.822 23.3622 123.674 22.5612 123.674 21.6901V21.3867C123.674 20.5001 123.822 19.6756 124.118 18.9134C124.43 18.1512 124.859 17.4979 125.404 16.9534C125.95 16.3934 126.597 15.9656 127.345 15.6701C128.094 15.359 128.912 15.2034 129.801 15.2034H129.871C130.697 15.2034 131.454 15.3434 132.139 15.6234C132.841 15.8879 133.441 16.269 133.94 16.7667C134.455 17.2646 134.852 17.8634 135.133 18.5634C135.414 19.2479 135.554 20.0022 135.554 20.8267V22.2734H126.036C126.098 22.7712 126.231 23.2222 126.433 23.6267C126.651 24.0312 126.932 24.3812 127.275 24.6767C127.618 24.9567 128.016 25.1822 128.468 25.3534C128.936 25.5246 129.434 25.6101 129.965 25.6101H130.011C130.822 25.6101 131.547 25.4467 132.186 25.1201C132.841 24.7934 133.34 24.3889 133.683 23.9067L135.18 25.2367C134.899 25.6101 134.564 25.9522 134.174 26.2634C133.784 26.5746 133.356 26.8312 132.888 27.0334C132.42 27.2356 131.937 27.3912 131.438 27.5001C130.939 27.6246 130.425 27.6867 129.894 27.6867H129.801ZM126.106 20.4767H133.309C133.278 19.9789 133.168 19.5356 132.981 19.1467C132.794 18.7422 132.545 18.4001 132.233 18.1201C131.921 17.8246 131.555 17.5989 131.134 17.4434C130.713 17.2722 130.253 17.1867 129.754 17.1867C129.271 17.1867 128.819 17.2646 128.398 17.4201C127.992 17.5756 127.634 17.8012 127.322 18.0967C127.01 18.3767 126.745 18.7189 126.527 19.1234C126.324 19.5279 126.184 19.9789 126.106 20.4767ZM138.673 27.5001V15.3667H140.521C140.599 15.5845 140.669 15.849 140.731 16.1601C140.793 16.4712 140.84 16.7667 140.871 17.0467C141.339 16.5334 141.908 16.129 142.579 15.8334C143.249 15.5223 143.997 15.3667 144.824 15.3667H145.034V17.6767C144.941 17.6301 144.839 17.5989 144.73 17.5834C144.637 17.5679 144.528 17.5601 144.403 17.5601C143.873 17.5601 143.389 17.6379 142.953 17.7934C142.532 17.9489 142.173 18.1822 141.877 18.4934C141.596 18.7889 141.378 19.1546 141.222 19.5901C141.066 20.0101 140.988 20.4846 140.988 21.0134V27.5001H138.673Z" fill="#4B782F"/>
</svg>

<svg width="147" height="40" fill="none" xmlns="http://www.w3.org/2000/svg"><path d="M36.75 0H6.682C2.992 0 0 2.985 0 6.667v26.666C0 37.015 2.992 40 6.682 40H36.75c3.69 0 6.682-2.985 6.682-6.667V6.667C43.432 2.985 40.44 0 36.75 0z" fill="#6A994E"/><path d="M8.483 28.333V12h6.197c.904 0 1.73.132 2.479.397.764.264 1.41.637 1.941 1.12.53.466.943 1.042 1.24 1.726.296.67.444 1.408.444 2.217v.187c0 .824-.148 1.579-.445 2.263a4.9 4.9 0 01-1.262 1.75c-.53.482-1.17.855-1.918 1.12-.733.264-1.56.397-2.48.397h-2.548v5.156H8.483zm3.53-8.026h2.34c.436 0 .826-.063 1.169-.187a2.75 2.75 0 00.888-.537 2.34 2.34 0 00.538-.84c.125-.326.188-.668.188-1.026v-.164c0-.373-.063-.707-.188-1.003a1.79 1.79 0 00-.514-.747 2.268 2.268 0 00-.842-.49 3.218 3.218 0 00-1.146-.186h-2.432v5.18zm11.109 8.026V12h6.197c.905 0 1.73.132 2.48.397.763.264 1.41.637 1.94 1.12a4.81 4.81 0 011.24 1.726c.296.67.444 1.408.444 2.217v.187c0 .824-.148 1.579-.444 2.263a4.903 4.903 0 01-1.263 1.75c-.53.482-1.17.855-1.918 1.12-.733.264-1.559.397-2.479.397H26.77v5.156h-3.648zm3.531-8.026h2.339c.436 0 .826-.063 1.17-.187a2.76 2.76 0 00.888-.537c.234-.233.413-.513.538-.84.124-.326.187-.668.187-1.026v-.164a2.56 2.56 0 00-.187-1.003 1.793 1.793 0 00-.515-.747 2.268 2.268 0 00-.842-.49 3.219 3.219 0 00-1.146-.186h-2.432v5.18z" fill="#fff"/><path d="M48.924 27.5V11.167h3.625l4.467 10.826h.187l4.443-10.826h3.625V27.5H62.84V14.223h-.14l-4.584 10.99H56.08l-4.583-10.99h-.14V27.5h-2.433zm23.756.21c-.623 0-1.2-.085-1.73-.257a4.422 4.422 0 01-1.333-.746 3.714 3.714 0 01-.889-1.144 3.6 3.6 0 01-.304-1.493v-.117c0-1.306.616-2.286 1.848-2.94 1.231-.668 3.079-1.003 5.542-1.003h1.053v-.677c0-.668-.242-1.19-.725-1.563-.484-.373-1.162-.56-2.035-.56h-.047a7.3 7.3 0 00-2.081.327 6.792 6.792 0 00-1.941.933l-1.006-1.75a10.283 10.283 0 012.432-1.167 8.828 8.828 0 012.713-.42h.094c.67 0 1.302.094 1.894.28.592.171 1.1.428 1.52.77.437.343.78.778 1.03 1.307.264.513.397 1.112.397 1.797v5.973c0 .373.039.762.117 1.167.078.389.179.746.304 1.073H77.24a2.754 2.754 0 01-.187-.653 16.87 16.87 0 01-.117-.817 6.61 6.61 0 01-1.965 1.26 6.24 6.24 0 01-2.291.42zm.304-2.03c.78 0 1.505-.155 2.175-.467A5.473 5.473 0 0076.867 24v-2.24h-.772c-1.855 0-3.22.179-4.093.537-.857.342-1.286.879-1.286 1.61v.07c0 .249.055.482.164.7.109.202.265.38.467.536.203.14.437.257.702.35.28.078.592.117.935.117zm9.94 1.82V15.367h1.825c.094.233.172.52.234.863.062.342.11.646.14.91a5.53 5.53 0 011.965-1.47 5.883 5.883 0 012.432-.513h.07c1.481 0 2.588.396 3.32 1.19.734.793 1.1 1.929 1.1 3.406V27.5h-2.315v-7.303c0-.934-.21-1.65-.632-2.147-.42-.513-1.114-.77-2.081-.77h-.117a4.13 4.13 0 00-1.473.257 2.957 2.957 0 00-1.146.7 3.534 3.534 0 00-.749 1.12c-.171.42-.257.902-.257 1.446V27.5h-2.315zm18.076.21c-.624 0-1.2-.085-1.73-.257a4.421 4.421 0 01-1.334-.746 3.717 3.717 0 01-.889-1.144 3.604 3.604 0 01-.303-1.493v-.117c0-1.306.615-2.286 1.847-2.94 1.232-.668 3.079-1.003 5.543-1.003h1.052v-.677c0-.668-.242-1.19-.725-1.563s-1.161-.56-2.035-.56h-.046c-.655 0-1.349.109-2.082.327a6.796 6.796 0 00-1.94.933l-1.006-1.75a10.286 10.286 0 012.432-1.167 8.83 8.83 0 012.713-.42h.093c.67 0 1.302.094 1.894.28.593.171 1.1.428 1.521.77a3.58 3.58 0 011.029 1.307c.265.513.397 1.112.397 1.797v5.973c0 .373.039.762.117 1.167.078.389.179.746.304 1.073h-2.292a2.764 2.764 0 01-.187-.653c-.047-.28-.086-.552-.117-.817a6.602 6.602 0 01-1.964 1.26c-.717.28-1.481.42-2.292.42zm.304-2.03c.779 0 1.504-.155 2.175-.467A5.48 5.48 0 00105.186 24v-2.24h-.772c-1.855 0-3.219.179-4.092.537-.858.342-1.287.879-1.287 1.61v.07c0 .249.055.482.164.7.11.202.265.38.468.536.202.14.436.257.701.35.281.078.593.117.936.117zm9.098-5.997v-.21a3.8 3.8 0 01.398-1.726c.265-.53.631-.98 1.099-1.354a4.83 4.83 0 011.684-.886 6.63 6.63 0 012.105-.327h.234a6.48 6.48 0 012.104.327 4.82 4.82 0 011.684.886c.468.374.834.825 1.099 1.354.265.529.398 1.112.398 1.75v.186a3.8 3.8 0 01-.398 1.727c-.265.529-.631.98-1.099 1.353a5.366 5.366 0 01-1.684.887 6.947 6.947 0 01-2.104.303h-.117c-.172 0-.343-.007-.515-.023a4.67 4.67 0 01-.491-.07v1.423a3.99 3.99 0 01.608-.046h.842c.795 0 1.528.078 2.198.233.671.156 1.248.389 1.731.7.499.296.889.653 1.169 1.073.281.42.421.895.421 1.424v.233c0 .513-.14.98-.421 1.4-.28.436-.67.801-1.169 1.097-.499.31-1.091.544-1.777.7a9.738 9.738 0 01-2.199.233h-.374c-.795 0-1.536-.078-2.222-.233-.686-.156-1.278-.39-1.777-.7a3.526 3.526 0 01-1.146-1.097 2.463 2.463 0 01-.421-1.4v-.257c0-.684.226-1.283.678-1.796.468-.514 1.076-.918 1.825-1.214V23.3c-.733-.358-1.31-.848-1.731-1.47a3.812 3.812 0 01-.632-2.147zm2.339-.163v.21c0 .358.078.685.234.98.171.28.39.529.655.747a2.7 2.7 0 00.935.49 4.01 4.01 0 001.17.163h.187c.421 0 .81-.054 1.169-.163.358-.125.67-.296.935-.514a2.46 2.46 0 00.655-.746c.156-.296.234-.615.234-.957v-.21c0-.358-.078-.677-.234-.957a2.498 2.498 0 00-.631-.77 2.66 2.66 0 00-.959-.49 3.754 3.754 0 00-1.193-.186h-.14c-.421 0-.819.062-1.193.186-.358.11-.67.273-.935.49a2.965 2.965 0 00-.655.747 1.98 1.98 0 00-.234.98zm-.14 9.123v.164c0 .513.296.918.888 1.213.609.296 1.396.443 2.363.443h.327c.966 0 1.754-.155 2.362-.466.608-.296.912-.692.912-1.19v-.164c0-.513-.304-.917-.912-1.213-.608-.295-1.396-.443-2.362-.443h-.327c-.967 0-1.754.148-2.363.443-.592.296-.888.7-.888 1.213zm9.191-14.63l-1.637 3.267-1.544-1.167c.125-.404.265-.777.421-1.12.171-.357.366-.684.585-.98h2.175zm8.009 13.674c-.904 0-1.731-.148-2.479-.444a5.828 5.828 0 01-1.941-1.236 6.204 6.204 0 01-1.263-1.914 6.346 6.346 0 01-.444-2.403v-.303c0-.887.148-1.711.444-2.474a5.887 5.887 0 011.286-1.96 5.497 5.497 0 011.941-1.283 6.338 6.338 0 012.456-.467h.07c.826 0 1.583.14 2.268.42a5.018 5.018 0 011.801 1.144 5.111 5.111 0 011.193 1.796c.281.685.421 1.44.421 2.264v1.446h-9.518c.062.498.195.95.397 1.354.218.404.499.754.842 1.05.343.28.741.505 1.193.676a4.32 4.32 0 001.497.257h.046c.811 0 1.536-.163 2.175-.49.655-.327 1.154-.731 1.497-1.213l1.497 1.33a5.695 5.695 0 01-1.006 1.026 5.63 5.63 0 01-1.286.77 7.886 7.886 0 01-1.45.467 6.35 6.35 0 01-1.544.187h-.093zm-3.695-7.21h7.203a3.552 3.552 0 00-.328-1.33 3.117 3.117 0 00-.748-1.027 3.18 3.18 0 00-1.099-.677 3.63 3.63 0 00-1.38-.256c-.483 0-.935.078-1.356.233a3.227 3.227 0 00-1.076.677 3.76 3.76 0 00-.795 1.026 4.577 4.577 0 00-.421 1.354zm12.567 7.023V15.367h1.848c.078.217.148.482.21.793.062.311.109.607.14.887a5.013 5.013 0 011.708-1.214c.67-.31 1.418-.466 2.245-.466h.21v2.31a.985.985 0 00-.304-.094 2.013 2.013 0 00-.327-.023c-.53 0-1.014.078-1.45.233-.421.156-.78.39-1.076.7a3.067 3.067 0 00-.655 1.097c-.156.42-.234.895-.234 1.423V27.5h-2.315z" fill="#4B782F"/></svg>
